!!!OTL: Sailing at High Tide
!!!ARE: United States of America; New England
!!!ONB: New England Singing Game
!!!AMD: Pentatonic
**kern
=1-
*clefG2
*k[f#]
*M2/4
*MM132
{8g/L
8g/J
8b/L
8a/J
=2
4g/
8b/L
8a/J
=3
4g/
4e/
=4
2d/}
=5
{8g/L
8g/J
8b/L
8a/J
=6
4g/
8b/L
8b/J
=7
4dd\
4a/
=8
2a/}
=9
{8dd\L
8dd\J
8dd\L
8dd\J
=10
4dd\
8dd\L
8dd\J
=11
4g/
4g/
=12
2b/}
=13
{8g/L
8g/J
8e/L
8e/J
=14
8d/L
8d/J
8g/L
8a/J
=15
4b/
8a/L
8a/J
=16
2g/}
=17
!! Refrain
{4g/
4b/
=18
4g/
4b/
=19
4g/
4e/
=20
2d/}
=21
{4g/
4b/
=22
4g/
4b/
=23
4dd\
4a/
=24
2a/}
=25
{8dd\L
8dd\J
4dd\
=26
2dd\
=27
8g/L
8g/J
8g/L
8g/J
=28
2b/}
=29
{4g/
4e/
=30
4d/
8g/L
8a/J
=31
4b/
4a/
=32
2g/}
==
*-
